X: 54
T:Missa L'ami Baudichon / Sanctus
N: Derived from Jos0501d-Missa_Lami_Baudichon-Sanctus.krn
C: Josquin des Prez
%%abc-version 2.0
%%abcx-abcm2ps-target-version 5.9.1 (29 Sep 2008)
%%abc-creator hum2abc beta
%%abcx-conversion-date 2019/02/12 16:15:40
%%abc-edited-by Jesse Rodin
%%abc-edited-by Jesse Rodin; Victoria Chang 2012/02/07
%%abcx-initial-encoding-date 2012/02/07/
%%humdrum-veritas 2914393461
%%humdrum-veritas-data 1975681982
%%linebreak <none>
%%barnumbers 0
L: 1/4
M: 3/1
Q: 1/2=120
%%staves [1 2 3 4]
V: 1 clef=treble
V: 2 clef=treble-8
V: 3 clef=treble-8
V: 4 clef=bass
K: C
[V:1] c8c4 | 
[V:2] c8e2f2 | 
[V:3] z12 :
[V:4] z12 | 
[V:1] B4A6G2 | 
[V:2] g4f6e2 | 
[V:3] x12 | 
[V:4] z12 | 
[V:1] G4F6E2 | 
[V:2] e4d2d3cA2 | 
[V:3] z12 :
[V:4] z12 | 
[V:1] E4D6C2 | 
[V:2] G2c2d2B4A2 | 
[V:3] x12 | 
[V:4] z12 | 
[V:1] C4z4z2G2- | 
[V:2] c12 | 
[V:3] z12 :
[V:4] z12 | 
[V:1] G2F2E2DCB,4 | 
[V:2] z4z2g4f2 | 
[V:3] x12 | 
[V:4] z12 | 
[V:1] C4D4z2G2- | 
[V:2] e2dcB4c4 | 
[V:3] z12 :
[V:4] z12 | 
[V:1] G2F2E2DCB,4 | 
[V:2] d4z2g4f2 | 
[V:3] x12 | 
[V:4] z12 | 
[V:1] C2E2D4C2G2 | 
[V:2] e2dcB4c2e2 | 
[V:3] z12 :
[V:4] z12 | 
[V:1] F2D2E4D4 | 
[V:2] d4c2g2f2d2 | 
[V:3] x12 | 
[V:4] z12 | 
[V:1] C2G2F2A3GE2- | 
[V:2] e4d3cA3G | 
[V:3] z12 :
[V:4] z12 | 
[V:1] EFG3CG4E2 | 
[V:2] A2B2c3BG2c2 | 
[V:3] x12 | 
[V:4] z12 | 
[V:1] D4z2C4E2 | 
[V:2] d2B2c3BA2G2 | 
[V:3] z12 :
[V:4] z12 | 
[V:1] D2F2E2G2F2A2 | 
[V:2] B2A2c2B2d2c2 | 
[V:3] x12 | 
[V:4] z12 | 
[V:1] G2B2A2c2B2d2 | 
[V:2] e2d2f2e2g3f | 
[V:3] z12 :
[V:4] z12 | 
[V:1] c2e3dc4B2 | 
[V:2] edc4e2d4 | 
[V:3] x12 | 
[V:4] z12 | 
[V:1] c12 | 
[V:2] c8c4 | 
[V:3] e12- :
[V:4] C,12 | 
[V:1] z4z4c4 | 
[V:2] A8c4 | 
[V:3] e8e4 | 
[V:4] C8A,4 | 
[V:1] d3cA2_B4AG | 
[V:2] G4z4G4 | 
[V:3] d12- :
[V:4] _B,3A,F,2G,4F,E, | 
[V:1] F12 | 
[V:2] A8_B4 | 
[V:3] d8d4 | 
[V:4] D,8_B,,4 | 
[V:1] E12 | 
[V:2] G4z2g2a2g2 | 
[V:3] c12- :
[V:4] C,12- | 
[V:1] z2G4E2F2G2 | 
[V:2] e8z4 | 
[V:3] c8c4 | 
[V:4] C,8F,2E,2 | 
[V:1] E4z4G4 | 
[V:2] g4a2g4e2 | 
[V:3] c12- :
[V:4] C,12 | 
[V:1] A6c4BA | 
[V:2] f2edc8 | 
[V:3] c8c4 | 
[V:4] F,8A,3B, | 
[V:1] G4A2G2c3d | 
[V:2] z4z4g4 | 
[V:3] e12- :
[V:4] C8C4 | 
[V:1] e6dcB2c2 | 
[V:2] g8g4 | 
[V:3] e8e4 | 
[V:4] C,3D,E,3F,G,2A,2 | 
[V:1] d6cBA2B2- | 
[V:2] G8A2G2 | 
[V:3] d12- :
[V:4] _B,2B,4A,G,F,2G,2- | 
[V:1] Bcd3cA2B4 | 
[V:2] d3cA4G4 | 
[V:3] d8d4 | 
[V:4] G,2D,3E,F,2G,4 | 
[V:1] c4z4G4 | 
[V:2] g4a2g4e2 | 
[V:3] c12- :
[V:4] C,12 | 
[V:1] A2G4E2F2G2 | 
[V:2] f2g2e4z4 | 
[V:3] c12- | 
[V:4] F,2E,2C,4F,2E,2 | 
[V:1] E4z2G2A2G2 | 
[V:2] z2g2a2g2e3f | 
[V:3] c12- :
[V:4] C,12- | 
[V:1] E3FG2C2z2G2 | 
[V:2] g2c2z2g2a2g2 | 
[V:3] c12- | 
[V:4] C,8z4 | 
[V:1] A2G2E3FG2A2 | 
[V:2] e3fg2a2e4 | 
[V:3] c12- :
[V:4] C,12- | 
[V:1] E2c3BA4GF | 
[V:2] z4[A8f8] | 
[V:3] c12- | 
[V:4] C,4F,8 | 
[V:1] E12 ||  
[V:2] G12 & g12 ||  
[V:3] c12 ||  
[V:4] C,12 ||  
[V:1]  [K:C] [K:clef=treble][M:3/1]c8c4 | 
[V:2]  [K:C] [K:clef=treble-8][M:3/1]c12 | 
[V:3]  [K:C] [K:clef=treble-8][M:3/1]z12 | 
[V:4]  [K:C] [K:clef=bass][M:3/1]z12 | 
[V:1] c4B2G2A2GF | 
[V:2] e8f4 | 
[V:3] z12 | 
[V:4] z12 | 
[V:1] E8E4 | 
[V:2] g8c4 | 
[V:3] z12 | 
[V:4] z12 | 
[V:1] G12- | 
[V:2] B2c2G2c3Bc2 | 
[V:3] z12 | 
[V:4] z12 | 
[V:1] G4G4C4 | 
[V:2] G2c4g4e2 | 
[V:3] z12 | 
[V:4] z12 | 
[V:1] B,2C2E2D4C2 | 
[V:2] d2e2c4B2c2- | 
[V:3] z12 | 
[V:4] z12 | 
[V:1] G4F2G2_B2A2- | 
[V:2] c2e2d2c2g4 | 
[V:3] z12 | 
[V:4] z12 | 
[V:1] A2G2c4B2c2 | 
[V:2] f2g2e2d4c2- | 
[V:3] z12 | 
[V:4] z12 | 
[V:1] e2d4c4B2 | 
[V:2] c2B2c4d4 | 
[V:3] z12 | 
[V:4] z12 | 
[V:1] A2c3BG2A2GF | 
[V:2] c12- | 
[V:3] z12 | 
[V:4] z12 | 
[V:1] E8E4 | 
[V:2] c8c4 | 
[V:3] z12 | 
[V:4] z12 | 
[V:1] F4E2C2D4 | 
[V:2] dcBAG2c4B2 | 
[V:3] z12 | 
[V:4] z12 | 
[V:1] C2G3FG2E2D2 | 
[V:2] c3Bc2G2c2B2 | 
[V:3] z12 | 
[V:4] z12 | 
[V:1] G3FEDC2z2c2- | 
[V:2] G2c3de2c4 | 
[V:3] z12 | 
[V:4] z12 | 
[V:1] cBc2A2d3cd2 | 
[V:2] f3ef2d2g3f | 
[V:3] z12 | 
[V:4] z12 | 
[V:1] B2G2c3BAGA2- | 
[V:2] g2e2c2f3edc | 
[V:3] z12 | 
[V:4] z12 | 
[V:1] A2D3CD2E2F2 | 
[V:2] d4G3FG2A2 | 
[V:3] z12 | 
[V:4] z12 | 
[V:1] D2G3FG2A2B2 | 
[V:2] B2G2c3Bc2d2 | 
[V:3] z12 | 
[V:4] z12 | 
[V:1] G2c3Bc2d2e2 | 
[V:2] e2c2f3ef2g2 | 
[V:3] z12 | 
[V:4] z12 | 
[V:1] c2d3GG2A2B2 | 
[V:2] a2f2g2e2d4 | 
[V:3] z12 | 
[V:4] z12 | 
[V:1] c2A3DD2E2F2 | 
[V:2] c4d2B2A4 | 
[V:3] z12 | 
[V:4] z12 | 
[V:1] G3AB2c3BAG | 
[V:2] [M:3/1](3:2:6G4c2d2e4f4e2 | 
[V:3] z12 | 
[V:4] z12 | 
[V:1] B2A3GG4^F2 | 
[V:2] (3:2:6d4c2d2B4c2A4 | 
[V:3] z12 | 
[V:4] z12 | 
[V:1] G4z2c4B2 | 
[V:2] [M:3/1]G2c4e2d4 | 
[V:3] z12 | 
[V:4] z12 | 
[V:1] c2e2d3cA2G2 | 
[V:2] c2g3fd3c_e2- | 
[V:3] z12 | 
[V:4] z12 | 
[V:1] _B3AF2G3FD2 | 
[V:2] ed_Bcd2z2GA=B2 | 
[V:3] z12 | 
[V:4] z12 | 
[V:1] E2F3EC2D4 | 
[V:2] c2d3cc4B2 | 
[V:3] z12 | 
[V:4] z12 | 
[V:1] C12 ||  
[V:2] c12 ||  
[V:3] z12 ||  
[V:4] z12 ||  
[V:1]  [K:C] [K:clef=treble][M:2/1]c8- | 
[V:2]  [K:C] [K:clef=treble-8][M:2/1]e8- | 
[V:3]  [K:C] [K:clef=treble-8][M:4/2]g8- :
[V:4]  [K:C] [K:clef=bass][M:2/1]C8- | 
[V:1] c8 | 
[V:2] e8 | 
[V:3] g8 | 
[V:4] C8 | 
[V:1] B8 | 
[V:2] d8- | 
[V:3] g8 :
[V:4] G,8 | 
[V:1] A6G2 | 
[V:2] d8 | 
[V:3] f8- | 
[V:4] D,8 | 
[V:1] A6B2 | 
[V:2] c8 | 
[V:3] f8 :
[V:4] F,6G,2 | 
[V:1] c4d4 | 
[V:2] z8 | 
[V:3] f8 | 
[V:4] A,4B,4 | 
[V:1] G4c4- | 
[V:2] z4c4- | 
[V:3] e8- :
[V:4] C6B,2 | 
[V:1] c4B4 | 
[V:2] c4g4- | 
[V:3] e8 | 
[V:4] A,4G,4 | 
[V:1] e4d4 | 
[V:2] g4d4 | 
[V:3] z8 :
[V:4] C4B,4 | 
[V:1] c6BA | 
[V:2] e4f4 | 
[V:3] x8 | 
[V:4] A,8 | 
[V:1] B8 | 
[V:2] g8 | 
[V:3] g8- :
[V:4] G,8- | 
[V:1] G4B4- | 
[V:2] z4G4 | 
[V:3] g8 | 
[V:4] G,8- | 
[V:1] B2c2d4- | 
[V:2] B6c2 | 
[V:3] g8 :
[V:4] G,8 | 
[V:1] d2c2A4- | 
[V:2] d6c2 | 
[V:3] f8- | 
[V:4] D,8- | 
[V:1] A2G2F2E2 | 
[V:2] A8 | 
[V:3] f8 :
[V:4] D,8 | 
[V:1] D8 | 
[V:2] _B8 | 
[V:3] f8 | 
[V:4] _B,,8 | 
[V:1] z4C4 | 
[V:2] G4A4 | 
[V:3] e8- :
[V:4] C,8- | 
[V:1] G4A4 | 
[V:2] G4c4- | 
[V:3] e8 | 
[V:4] C,8- | 
[V:1] G4c4- | 
[V:2] c2B2A4 | 
[V:3] z8 :
[V:4] C,8- | 
[V:1] c2B2A4 | 
[V:2] G4c4- | 
[V:3] x8 | 
[V:4] C,8 | 
[V:1] G4c4- | 
[V:2] c2d2e4 | 
[V:3] e8- :
[V:4] C6B,2 | 
[V:1] c4B4 | 
[V:2] c4g4- | 
[V:3] e8 | 
[V:4] A,4G,4 | 
[V:1] G4A4 | 
[V:2] g4c4 | 
[V:3] e8 :
[V:4] C6B,2 | 
[V:1] B3cd3e | 
[V:2] d4B4 | 
[V:3] d8- | 
[V:4] G,8 | 
[V:1] f3edcd2- | 
[V:2] A8 | 
[V:3] d8 :
[V:4] D,8 | 
[V:1] dcBAB4 | 
[V:2] G8 | 
[V:3] d8 | 
[V:4] G,8 | 
[V:1] c8 ||  
[V:2] c8 & g8 ||  
[V:3] c8 ||  
[V:4] C,8 ||  
[V:1]  [K:C] [K:clef=treble][M:2/1]G8 | 
[V:2]  [K:C] [K:clef=treble-8][M:2/1]c8- | 
[V:3]  [K:C] [K:clef=treble-8][M:2/1]z8 | 
[V:4]  [K:C] [K:clef=bass][M:2/1]z8 | 
[V:1] A4G4- | 
[V:2] c8- | 
[V:3] z8 | 
[V:4] z8 | 
[V:1] G2ABc4 | 
[V:2] c8 | 
[V:3] z8 | 
[V:4] z8 | 
[V:1] B2A4GF | 
[V:2] d8 | 
[V:3] z8 | 
[V:4] z8 | 
[V:1] G4C4- | 
[V:2] e8- | 
[V:3] z8 | 
[V:4] z8 | 
[V:1] C4G4- | 
[V:2] e8 | 
[V:3] z8 | 
[V:4] z8 | 
[V:1] G2ABc4 | 
[V:2] c8 | 
[V:3] z8 | 
[V:4] z8 | 
[V:1] z2F4GA | 
[V:2] d8- | 
[V:3] z8 | 
[V:4] z8 | 
[V:1] _B2A4GF | 
[V:2] d8 | 
[V:3] z8 | 
[V:4] z8 | 
[V:1] E4G4- | 
[V:2] c6BA | 
[V:3] z8 | 
[V:4] z8 | 
[V:1] G2F2E4 | 
[V:2] G6A2 | 
[V:3] z8 | 
[V:4] z8 | 
[V:1] D4C4 | 
[V:2] B4c4- | 
[V:3] z8 | 
[V:4] z8 | 
[V:1] D8 | 
[V:2] c2BAB4 | 
[V:3] z8 | 
[V:4] z8 | 
[V:1] E8- | 
[V:2] c8- | 
[V:3] z8 | 
[V:4] z8 | 
[V:1] E4C4 | 
[V:2] c8- | 
[V:3] z8 | 
[V:4] z8 | 
[V:1] C8 ||  
[V:2] c8 ||  
[V:3] z8 ||  
[V:4] z8 ||  
[V:1]  [K:C] [K:clef=treble][M:2/1]z8 | 
[V:2]  [K:C] [K:clef=treble-8][M:2/1]c8- | 
[V:3]  [K:C] [K:clef=treble-8][M:2/1]z8 | 
[V:4]  [K:C] [K:clef=bass][M:2/1]C,4F,4 | 
[V:1] z8 | 
[V:2] c8- | 
[V:3] z8 | 
[V:4] E,4C,4- | 
[V:1] z8 | 
[V:2] c8 | 
[V:3] z8 | 
[V:4] C,4C4- | 
[V:1] z8 | 
[V:2] d8 | 
[V:3] z8 | 
[V:4] C2B,A,B,4 | 
[V:1] z8 | 
[V:2] e8- | 
[V:3] z8 | 
[V:4] C8- | 
[V:1] z8 | 
[V:2] e8 | 
[V:3] z8 | 
[V:4] C4C,4- | 
[V:1] z8 | 
[V:2] c8 | 
[V:3] z8 | 
[V:4] C,4C4 | 
[V:1] z8 | 
[V:2] d8- | 
[V:3] z8 | 
[V:4] B,2G,4F,E, | 
[V:1] z8 | 
[V:2] d8 | 
[V:3] z8 | 
[V:4] D,2G,3A,B,2 | 
[V:1] z8 | 
[V:2] c6BA | 
[V:3] z8 | 
[V:4] C2A,4C2 | 
[V:1] z8 | 
[V:2] G6A2 | 
[V:3] z8 | 
[V:4] B,2G,4F,2 | 
[V:1] z8 | 
[V:2] B4c4- | 
[V:3] z8 | 
[V:4] G,4E,4 | 
[V:1] z8 | 
[V:2] c2BAB4 | 
[V:3] z8 | 
[V:4] D,8 | 
[V:1] z8 ||  
[V:2] c8 ||  
[V:3] z8 ||  
[V:4] C,8 ||  
[V:1]  [K:C] [K:clef=treble][M:2/1]C4E4- | 
[V:2]  [K:C] [K:clef=treble-8][M:2/1]c8- | 
[V:3]  [K:C] [K:clef=treble-8][M:2/1]z8 | 
[V:4]  [K:C] [K:clef=bass][M:2/1]z8 | 
[V:1] E2F2G4 | 
[V:2] c8- | 
[V:3] z8 | 
[V:4] z8 | 
[V:1] C4G4 | 
[V:2] c8 | 
[V:3] z8 | 
[V:4] z8 | 
[V:1] F6ED | 
[V:2] d8 | 
[V:3] z8 | 
[V:4] z8 | 
[V:1] C8 | 
[V:2] e8- | 
[V:3] z8 | 
[V:4] z8 | 
[V:1] z4c4- | 
[V:2] e8 | 
[V:3] z8 | 
[V:4] z8 | 
[V:1] c2d2e4 | 
[V:2] c8 | 
[V:3] z8 | 
[V:4] z8 | 
[V:1] d2f3ed2- | 
[V:2] d8- | 
[V:3] z8 | 
[V:4] z8 | 
[V:1] dcA2B4 | 
[V:2] d8 | 
[V:3] z8 | 
[V:4] z8 | 
[V:1] c4A2c2 | 
[V:2] c6BA | 
[V:3] z8 | 
[V:4] z8 | 
[V:1] B2G4FE | 
[V:2] G6A2 | 
[V:3] z8 | 
[V:4] z8 | 
[V:1] D2G3FE2- | 
[V:2] B4c4- | 
[V:3] z8 | 
[V:4] z8 | 
[V:1] E2DCD4 | 
[V:2] c2BAB4 | 
[V:3] z8 | 
[V:4] z8 | 
[V:1] E8 | 
[V:2] c8- | 
[V:3] z8 | 
[V:4] z8 | 
[V:1] C8 ||  
[V:2] c8 ||  
[V:3] z8 ||  
[V:4] z8 ||  



